jsapp/svg-icons/view.svg

<svg height="40" viewBox="0 0 40 40" width="40" xmlns="http://www.w3.org/2000/svg"><path d="m32 20-.4540779.6008333c-.196914.2601667-4.9125643 6.3991667-11.5459221 6.3991667s-11.34900808-6.139-11.54592212-6.3991667l-.45407788-.6008333.45407788-.6008333c.19691404-.2601667 4.91256432-6.3991667 11.54592212-6.3991667s11.3490081 6.139 11.5459221 6.3991667zm-12 5.0719214c4.2818792 0 7.9185219-3.5668287 9.2601029-5.0719214-1.341581-1.5025567-4.9782237-5.0719214-9.2601029-5.0719214s-7.9185219 3.5693647-9.2601029 5.0719214c1.341581 1.5050927 4.9782237 5.0719214 9.2601029 5.0719214zm0-2.0719214c-1.6568542 0-3-1.3431458-3-3s1.3431458-3 3-3 3 1.3431458 3 3-1.3431458 3-3 3z" fill-rule="evenodd"/></svg>

<?xml version="1.0" encoding="UTF-8"?>
<svg width="40px" height="40px" viewBox="0 0 40 40" version="1.1" xmlns="http://www.w3.org/2000/svg" xmlns:xlink="http://www.w3.org/1999/xlink">
    <!-- Generator: Sketch 50.2 (55047) - http://www.bohemiancoding.com/sketch -->
    <title>Icons/view</title>
    <desc>Created with Sketch.</desc>
    <defs>
        <path d="M32,20 L31.5459221,20.6008333 C31.3490081,20.861 26.6333578,27 20,27 C13.3666422,27 8.65099192,20.861 8.45407788,20.6008333 L8,20 L8.45407788,19.3991667 C8.65099192,19.139 13.3666422,13 20,13 C26.6333578,13 31.3490081,19.139 31.5459221,19.3991667 L32,20 Z M20,25.0719214 C24.2818792,25.0719214 27.9185219,21.5050927 29.2601029,20 C27.9185219,18.4974433 24.2818792,14.9280786 20,14.9280786 C15.7181208,14.9280786 12.0814781,18.4974433 10.7398971,20 C12.0814781,21.5050927 15.7181208,25.0719214 20,25.0719214 Z M20,23 C18.3431458,23 17,21.6568542 17,20 C17,18.3431458 18.3431458,17 20,17 C21.6568542,17 23,18.3431458 23,20 C23,21.6568542 21.6568542,23 20,23 Z" id="path-1"></path>
    </defs>
    <g id="Icons/view" stroke="none" stroke-width="1" fill="none" fill-rule="evenodd">
        <mask id="mask-2" fill="white">
            <use xlink:href="#path-1"></use>
        </mask>
        <use id="Mask" fill="#000000" xlink:href="#path-1"></use>
    </g>
</svg>
